X: 2
T: Bat Harim
O: Israel
M: C|
L: 1/4
K: Em
"Intro"\
| "Am"{G}A A2 A | "Em"G/A/G/F/ E/F/G/A/ | "B7" BF B/A/G/F/ | "Em"Ez Ez ||
|: "Em"E2 E2 | "D"D2 EF | "Em"G A2 F | GF "Bm"GF | "Em" E2 E2 |
| "Am"A B2 G |1 AF GE | A3 z :|2 AF GF | "Em"E3 z |
|: "Am"A2 A2 | "Dm"zd cB | "Am"c>B AG | A2 E2 | "Em"G2 G2 |
| zF GA |1 "Em"BG cB | "Am"A3 z :|2 "B7"FB, GF | "Em"E3 z |]
